icons/svg/notice-gray.svg

<?xml version="1.0" encoding="UTF-8"?>
<svg width="23px" height="20px" viewBox="0 0 23 20" version="1.1" xmlns="http://www.w3.org/2000/svg" xmlns:xlink="http://www.w3.org/1999/xlink">
    <!-- Generator: Sketch 57.1 (83088) - https://sketch.com -->
    <title>编组</title>
    <desc>Created with Sketch.</desc>
    <g id="页面1" stroke="none" stroke-width="1" fill="none" fill-rule="evenodd">
        <g id="消息提醒_关注" transform="translate(-598.000000, -296.000000)" fill="#B2B2B2" fill-rule="nonzero">
            <g id="编组" transform="translate(598.000000, 296.000000)">
                <path d="M11.067661,2.15104167 L11.067661,17.2055871 L6.437863,13.3475063 L6.01665089,12.9964962 L1.5358428,12.9964962 L1.55351957,6.36417298 L5.43331756,6.37982954 L5.9848327,6.38184974 L6.40857007,6.02881944 L11.067661,2.15104167 L11.067661,2.15104167 Z M11.6166509,0.0141729818 C11.3944287,0.0141729818 11.1742266,0.0909406684 10.9969539,0.237910352 L5.43887311,4.86366793 L1.00907513,4.84599117 L1.00553978,4.84599117 C0.750994314,4.84599117 0.504529688,4.94649622 0.324226649,5.1273043 C0.142408464,5.30760734 0.0393781684,5.55356693 0.0393781467,5.81063763 L0.0191761285,13.5414457 C0.0191761285,13.7990215 0.119681185,14.0449811 0.301499371,14.2262942 C0.482213285,14.4087629 0.728526417,14.5111812 0.98533776,14.5106376 L5.46766098,14.5106376 L10.997964,19.1192235 C11.2859822,19.3592609 11.6869948,19.4106678 12.0262469,19.2510417 C12.3658174,19.0922675 12.5826591,18.7511505 12.5823079,18.3762942 L12.5823079,0.980334592 C12.5823079,0.446935443 12.15005,0.0144518137 11.6166509,0.0141729818 Z M15.7732165,4.93791035 C15.2956717,4.71439306 14.7271888,4.91687567 14.4984691,5.39195076 C14.2699018,5.87023875 14.4661481,6.44348453 14.9398832,6.6813447 C15.0014994,6.71316289 16.4489741,7.46568813 16.4489741,9.60760731 C16.4489741,11.8970013 15.0954388,12.6555871 15.0499842,12.6798295 C14.5721742,12.9187345 14.3785035,13.4997468 14.6174085,13.9775568 C14.8563135,14.4553668 15.4373258,14.6490376 15.9151357,14.4101326 C16.0156408,14.3591225 18.3812974,13.1348801 18.3812974,9.60760731 C18.3812974,6.20508205 15.8787721,4.98791035 15.7732165,4.93791035 L15.7732165,4.93791035 Z" id="形状"></path>
                <path d="M18.7818024,2.09952652 C18.3350263,1.8145722 17.7420211,1.94359427 17.4540246,2.38841541 C17.1654731,2.83525354 17.2905017,3.43111051 17.7343276,3.72427398 C17.8388731,3.79346591 20.3146307,5.48033459 20.3146307,9.67881944 C20.3146307,13.8869003 17.9393782,15.5752841 17.8449337,15.6399306 C17.5576777,15.8313744 17.3943763,16.161525 17.4165435,16.5060179 C17.4387108,16.8505108 17.6429789,17.1570093 17.9524022,17.3100584 C18.2618254,17.4631074 18.6293949,17.4394552 18.9166509,17.2480114 C19.0525095,17.1581124 22.2464489,14.9682134 22.2464489,9.67780935 C22.2469539,4.37831441 18.9232166,2.18993056 18.7818024,2.09952652 Z" id="路径"></path>
            </g>
        </g>
    </g>
</svg>

<svg width="23" height="20" xmlns="http://www.w3.org/2000/svg"><g><path d="M11.068 2.151v15.055l-4.63-3.858-.421-.352H1.536l.018-6.632 3.88.016.55.002.425-.353 4.659-3.878zm.549-2.137a.971.971 0 00-.62.224L5.439 4.864l-4.43-.018h-.003a.963.963 0 00-.967.965l-.02 7.73a.965.965 0 00.966.97h4.483l5.53 4.608a.965.965 0 001.584-.743V.98a.966.966 0 00-.965-.966zm4.156 4.924a.962.962 0 00-1.275.454.973.973 0 00.442 1.29c.061.031 1.509.784 1.509 2.926 0 2.289-1.354 3.048-1.399 3.072a.967.967 0 00.865 1.73c.1-.05 2.466-1.275 2.466-4.802 0-3.403-2.502-4.62-2.608-4.67z"/><path d="M18.782 2.1a.964.964 0 00-1.328.288.97.97 0 00.28 1.336c.105.07 2.58 1.756 2.58 5.955 0 4.208-2.375 5.896-2.47 5.96a.966.966 0 101.073 1.609c.136-.09 3.33-2.28 3.33-7.57 0-5.3-3.324-7.488-3.465-7.578z"/></g></svg>
